X: 20581
T: Just where yon burn trots thro' the broom
Q: "Moderato"
C: Thompson
B: "Man of Feeling", Gaetano Brandi, ed. v.2 p.58-60
F: http://archive.org/details/manoffeelingorge00rugg
Z: 2012 John Chambers <jc:trillian.mit.edu>
N: Bar __: c note shortened to 16th note to fix the rhythm.
M: 2/4
L: 1/16
K: C
%%continueall
G2 | E3 F G2 A2 | G2 c2 c3 A |
w: Just where yon burn trots thro' the broom, A-
G2 f2 e3 d | c2 A2 A2 (GF) | E3 F G2 A2 |
w: mang the birks sae mo-ny O, where* go-wan's glint, and
G2 c2 c3 A | G2 c2 f3 e | d2 c2 c2 e2 |
w: blue-bells bloom, and ling-whites sing sae bon-ny O, A
e3 d c2 e2 | c3 B A2 G2 | F3 G F2 E2 |
w: Lass there lives right fair to see, wi' grace-fu' air en-
D2 d2 d2 f2 | e3 g f2 e2 | d2 c2 B2 c2 |
w: chant-ing O, whase rose-bud cheek, and spark-ling e'e, Ha'e
G3 A G2 e2 | e2 d2 Hd2 (ed) | c3 d e3 d |
w: set this heart a pant-ing O, Her* pres-ence mak's me
c2 A2 A2 (dc) | B3 c d3 c | B2 G2 G2 (ef) |
w: chee-ry O, her* ab-sence mak's me wea-ry O, 'tis*
g2 e2 e2 c2 | A3 B Hc3 A | G3 c f2 e2 |
w: my de-light baith day and night, to gaze up-o' my
{e/}d2 c2 c2 zg | (agab) c'2a2 | (g3f) e2ze | fefg af |
w: dear-y O.
e3f g2a2 | e4 {e/}d2cd | "Da Capo"c6 |]
%
W: 2. I'd leave the town and a' its pride,
W: The seat o'vice and slander, O.
W: At eve yon burnie's flow'ry side
W: wi' my sweet lass to wander, O,
W: Let fortune shun my lowly cot,
W: And wealthy sauls frown on me, O,
W: The fickle jade I'd mind her not,
W: Woud Annie smile upon me, 0.
W: Her presence maks me cheery O &c.
W:
W: 3. Ye painted prudes, wi' a' your art,
W: In silk and siller flaunting, O.
W: Whase costly claise aft hides a heart
W: Where modesty is wanting, O,
W: My Annie scorns your borrow'd grace
W: And, sweet as May-day morning, O,
W: Bright health blooms on her cheerfu' face,
W: In spite of a'your scorning, O.
W: Her presence maks me cheery O &c.
%
%%center -

% Continuation of previous page.

% Continuation of previous page.

%%sep 2 1 500
%%sep 1 1 500

